X:1
T:Kinderszenen Nos. 7 and 8
T:Von fremden Ländern und Menschen (Of Foreign Lands and Peoples)
T:Kuriose Geschichte (A Funny Story)
T:Hasche-Mann (Catch Me)
T:Bittendes Kind (Pleading Child)
T:Glückes Genug (Quite Happy)
T:Wichtige Begebenheit (An Important Event)
T:Träumerei (Daydreaming)
T:Am Kamin (By the Fire)
T:Ritter vom Steckenpferd (Knight of the Hobbyhorse)
T:Fast zu Ernst (Almost too Serious)
T:Fürchtenmachen (Frightening)
T:Kind im Einschlummern (Child Falling Asleep)
T:Der Dichter Spricht (The Poet Speaks)
C:Robert Schumann
%%score { ( 1 6 7 8 ) | ( 2 3 4 5 ) }
L:1/8
Q:1/4=68
M:2/4
K:G
V:1 treble nm="Piano" snm="Pno."
V:6 treble 
V:7 treble 
V:8 treble 
V:2 bass 
V:3 bass 
V:4 bass 
V:5 bass 
V:1
!p! (B2 g2 | f>e d2) | (B2 g2 | f>e d2) | (B2 g2 | e>d c2 | A2!>(! d2 | B4)!>)! :: %8
!p! ([GB]2 [Ac]2 | [FA]2 [GB]2) | ([EG]2 [EA]2 | [^DF]2 [=DG]2) | %12
"^rit  -  tar       -   dan   -   do" (E2[Q:1/4=64]"^64"!<(! F2[Q:1/4=66]"^66" | %13
 G>[Q:1/4=56]"^56"A!mf! !fermata!B>c)!<)![Q:1/4=58]"^58" |[Q:1/4=68]"^70" (d2 g2 | f>e d2) | %16
 (B2 g2 | f>e d2) | (B2 g2 | e>d!>(! c2 | A2 d2[Q:1/4=62]"^64" | B4)!>)! :| x2 | %23
[K:D][M:3/4]!mf![Q:1/4=124] (4:3:1([DF]2 (2:1:2B/A/ | [CG])z/[CF]/ [CG]2 ([CB]2 | [DA]4) ([Ad]2 | %26
 [Gc])z/[FB]/ [EA]2 (!>![GAg]2 | [Fdf])z/[Gce]/ [Ad]2 (4:3:1([DF]2 (2:1:2x/x/ | %28
 [CG])z/[CF]/ [CG]2 ([CB]2 | [DA]4) (d>c) |!<(! (cdef f>^g!<)! | ^g2 a2) ::!p! ef | %33
!<(! =gagfgf!<)! | e4 =d=c | B2 =c2 B2 | A4!<(! (4:3:1(F2 x/4x/4!<)! | %37
!p! [CG])z/[CF]/ [CG]2 ([CB]2 |!<(! [DA]4) ([Ad]2!<)! | [Gc])z/[FB]/ [EA]2 (!>![GAg]2 | %40
 [Fdf])z/[Gce]/ [Ad]2!mf! (4:3:1([DF]2 x/4x/4 | [CG])z/[CF]/ [CG]2 (B>A) |!<(! ([DA]Bcd de!<)! | %43
"^ritard."[Q:1/4=120]"^120" f4[Q:1/4=116]"^116"[Q:1/4=112]"^112" e2- | %44
[Q:1/4=94]"^94"!>(! e2[Q:1/4=120]"^120" d2)!>)! :| x2 |[M:2/4][Q:1/4=120] (B2 c/).d/.e/.f/ | %47
 .a/.g/.f/.e/ .g/.f/.e/.d/ | (e2 f/).g/.a/.b/ | .d'/.c'/.b/.^a/ ([fb]/d/) .B/.F/ | %50
 (B2 c/).d/.e/.f/ | .a/.g/.f/.e/ .g/.f/.e/.d/ | (e2 f/).g/.a/.b/ | %53
 .d'/.c'/.b/.^a/ ([fb]/d/) .B/.F/ |: (g2 A/).B/.c/.d/ | .f/.e/.d/.=c/ .B/.A/.G/.F/ | %56
 (G2 F/).G/.A/.B/ | .d/.=c/.B/.A/ .G/.F/.E/.^D/ |!mf! (E2 D/E/=F/G/) | (E2 =F/G/A/B/) | %60
 =c2 [^Ae]2- | [Ae]4 | (B2 c/).d/.e/.f/ | .a/.g/.f/.e/ .g/.f/.e/.d/ | (e2 f/).g/.a/.b/ |1 %65
 .d'/.c'/.b/.^a/ ([fb]/d/) .B/.F/ :|2 .d'/.c'/.b/.^a/ b2 |][M:2/4]!p![Q:1/4=54] Bgfe | d[^G=B] c2 | %69
!pp! Bgfe | d[^G=B] c2 ||!p! =cABF | G=E F2 |!pp! =cABF | G=E F2 || %75
!p!"^ri   -   -   -   tar   -   -   -   dan   -   -   do"[Q:1/4=52]"^52"!<(! F^G[Q:1/4=50]"^50"AB!<)! | %76
!mp![Q:1/4=48]"^48" c[^GB][Q:1/4=46] A2 | %77
!pp!"^ri   -   -   -   tar   -   -   -   dan   -   -   do"!<(! F[Q:1/4=50]"^50"^G[Q:1/4=48]"^48"A[Q:1/4=46]"^46"B!<)! | %78
[Q:1/4=44]"^44" c[^GB] A2 |!p![Q:1/4=52]"^52" Bgfe | d[^G=B] c2 | %81
!pp!"^ri   -   -   -   tar   -   -   -   dan   -   -   do"[Q:1/4=52]"^52" (Bgf[Q:1/4=50]"^50"e | %82
 d[Q:1/4=48][Q:1/4=46]"^46"[^G=B][Q:1/4=44]"^44" c2-[Q:1/4=40]"^40"[Q:1/4=25]"^25" | %83
[Q:1/4=62]"^62" !fermata!g2) z2 |][M:2/4]!p![Q:1/4=88] (^G |!<(! Acf!<)!e |: dA) z .A | %87
 (A/.E/) (E/F/ GB | AF E) (!>!^G | !>!A2) z (C |!<(! DFB!<)!A | GBe"_rit."[Q:1/4=86]"^86"d |1 %92
[Q:1/4=84]"^84" c[Q:1/4=80]"^80"B[Q:1/4=78]"^78"A)[Q:1/4=76]"^76" (^G | %93
[Q:1/4=88]"^88"!<(! Acf!<)!e) :|2 %94
[Q:1/4=82]"^82"!f!!>(! (c[Q:1/4=78]"^78"B[Q:1/4=76]"^76"A)!>)![Q:1/4=70]"^70" (A || %95
[Q:1/4=88]"^88"!<(! _Bea!<)!g | =f=c) z .c | (=c/.G/) (G/A/ _Bd | =cA G) (A |!<(! _Bea!<)!g | %100
 fced | BF"^ritardando"[Q:1/4=76]"^76"A[Q:1/4=70]"^70"G | %102
[Q:1/4=68]"^68" F[Q:1/4=66]"^66"E[Q:1/4=62]"^62" D2)!D.C.! |] x2 | %104
[K:A][M:3/4]!f![Q:1/4=96] ([cea]2 | [Beg]>)[A^df] !^![Gce]2 !^![Acf]2 | %106
 !^![FB^d]2 !^![GBe]2 ([B=d]2 | [EAc]>)[DGB] !^![CFA]2 !^![DFB]2 | %108
 !^![B,EG]2 !^![CEA]2!mf! ([CEA]2 | [B,EG]>)[A,^DF] !^![G,CE]2 !^![A,CF]2 | %110
!>(![I:staff +1] !^![F,B,^D]2 !^![G,B,E]2 ([B,=D]2 | %111
 [E,A,C]>)[D,G,B,]!>)! !^![C,F,A,]2 !^![D,F,B,]2 | !^![B,,E,G,]2 !^![C,E,A,]2 |: %113
!ff![I:staff -1] [A,CEA]2 | [A,DFA]4 [A,DFA]2 | !^![DE=GB]4 [DEGB]2 | %116
 !^![=G,A,CE]2 !^![G,A,CE]2 !^![G,A,CE]2 | [=CDA]6 |!<(! !^![=G,=CD]2 !^![G,CD]2 !^![G,CD]2!<)! | %119
 !^![=G,B,D]2 !^![G,D=G]2 !^![A,DF]2 | !^![B,DE]>[B,DF] !^![B,D=G]2 !^![=G,A,CE]2 | %121
 !^![F,A,D]2 z2 :|!f! ([cea]2 | [Beg]>)[A^df] !^![Gce]2 !^![Acf]2 | !^![FB^d]2 !^![GBe]2 ([B=d]2 | %125
 [EAc]>)[DGB] !^![CFA]2 !^![DFB]2 | !^![B,EG]2 !^![CEA]2 ([CEA]2 | %127
 [B,EG]>)[A,^DF] !^![G,CE]2 !^![A,CF]2 |!>(![I:staff +1] !^![F,B,^D]2 !^![G,B,E]2 ([B,=D]2 | %129
 [E,A,C]>)[D,G,B,]!>)![Q:1/4=91]"^91" !^![C,F,A,]2[Q:1/4=87]"^87" !^![D,F,B,]2 | %130
[Q:1/4=82]"^82" !^![B,,E,G,]2 !^![C,E,A,]2 |][K:F][M:4/4]!p![Q:1/4=60][I:staff -1] (C2 |: %132
 F4- F)!<(! (EFA | cf)!<)!!mp! f4 (ed | cf)(GA Bd)(F[EG] | %135
 [FA]c [EG]4)[Q:1/4=48]"^48" (C2[Q:1/4=64]"^64"[Q:1/4=54]"^54" |[Q:1/4=60]"^60" F4- F)!<(! (EFA | %137
 ca)!<)!!mp! (a3 gfe | fadf e3 _e | %139
"^rit." d2[Q:1/4=51]"^51" =e2 c4)[Q:1/4=54]"^54"[Q:1/4=48]"^48"[Q:1/4=45] :| %140
[Q:1/4=60]"^60" F4- F!<(! (EFA | c_e)!<)!!mp! e4 (dc | BdGA B3 A | %143
 G3 D-[Q:1/4=64]"^64" D2)[Q:1/4=54]"^54" z[Q:1/4=48]"^48" (F |[Q:1/4=60]"^60" B4- B)!<(! (ABd | %145
 fb)!<)!!mp! b4 (ag | fade f3 e | %147
 d3 A-"^ritard."[Q:1/4=56]"^56" A2)[Q:1/4=51]"^51" (G2[Q:1/4=54]"^54"[Q:1/4=45]"^45" | %148
[Q:1/4=60]"^60"!p! F4- F)!<(! (EFA | cf)!<)!!mp! f4 (ed | cf)(GA Bd)(F[EG] | %151
 [FA]c [EG]4)[Q:1/4=48]"^48" (C2[Q:1/4=64]"^64"[Q:1/4=54]"^54" |[Q:1/4=60]"^60" F4- F)!<(! (EFA | %153
 c!fermata!a)!<)!!mp! !fermata!a3"_ri   -   -   tar   -   -  dan   -   -   do"[Q:1/4=58]"^58" (gf[Q:1/4=56]"^56"d | %154
 c[Q:1/4=54]"^54"f)(GA B[Q:1/4=50]"^50"d)(G[^FA] | %155
 [GB][Q:1/4=44]"^44"d)!p!(D[Q:1/4=36]"^36"[C-E] !fermata![CF]4) |][M:2/4][Q:1/4=114]!p! c | %157
 (f2 e_e | d=efg) | (c3 B | A2) z c | (cfe_e | d=efg) | (c3 B |!<(! A2) z c!<)! |:!mf! (cGA!>!B | %166
 d)(DE!<(!^F | GBdD!<)! | G2) z (B | dAB!>!c | e)(E^F!<(!^G | AceE-!<)! | %172
[Q:1/4=100][Q:1/4=96]"^96" E"^rit."[Q:1/4=88]"^88" !>![CA]2) !>![B,G] |[Q:1/4=114]"^114" (F2 E_E | %174
!p! d=efg) | (c3 B | A2) z c | (cfe_e | d"^rit."[Q:1/4=90]"^90"=e!fermata!f!fermata!g | %179
[Q:1/4=86]"^86" a2 g2 |1 f2)[Q:1/4=114] z c :|2[Q:1/4=90]"^90" (f2[Q:1/4=114] z) [Fc] || %182
 (!>![Fd][Ec])(!>![Fd][Ec]) | (c B2 A | G2 A2 | F3)[K:bass] [F,C] | %186
 (!>![F,D][E,C])(!>![F,D][E,C]) |!>(! (C B,2 A, | %188
"^ritardando"[Q:1/4=90]"^90" G,2[Q:1/4=84]"^84" A,2!>)![Q:1/4=70]"^70" | !fermata!F,4) |] %190
[K:C][M:3/4][K:treble][Q:3/4=80]!mf! z !tenuto![cg]2 [cg] !>![ca]2 | %191
 z !tenuto![cg]2 [cg] !>![ce]2 | z !tenuto![cf]2 [cf] !>![dg]2 | z !tenuto![ce]2 [ce] !>![Gc]2 | %194
 z !tenuto![Gc]2 [Gc] !>![Ac]2 | z !tenuto![Gc]2 [Gc] !>![Ec]2 | z !tenuto![FG]2 [FG] !>![GG]2 | %197
 z !tenuto![EG]2 [EG] !>![EG]2 :: z !tenuto![EGc]2 [EGc] !>![EAc]2 | %199
 z !tenuto![E_Bc]2!<(! [EBc] !>![FBc]2 | z !tenuto![G_Bc]2 [GBc] !>![GB^c]2 | %201
 z !tenuto![G_Bd]2 [GBd] !>![GBe]2 | z !tenuto![Adf]2 [Adf] !>![G_Be]2 | %203
 z !tenuto![FAd]2 [FAd] !>![EA^c]2 | z !tenuto![FAd]2 [FAd] !>![_E^F=c]2 | %205
 z !tenuto![D=Fc]2 [DFc] !>![DFB]2!<)! |!ff! z !tenuto![Gc]2 [Gc] !>![Ac]2 | %207
 z !tenuto![Gc]2 [Gc] !>![EGc]2 | z !tenuto![FGc]2 [FGc] !>![GGc]2 | %209
 z !tenuto![EGc]2 [EGc] !>![CGc]2 | z !tenuto![EGc]2 [EGc] !>![FGc]2 | %211
 z !tenuto![EGc]2 [EGc] !>![CGc]2 | z !tenuto![DGc]2 [DGc] !>![EGc]2 | %213
 z !tenuto![CGc]2 [Cc] !>![Cc]2 :| x2 |[K:B][M:2/8]!p![Q:1/8=96] (D/- | D/GB/- |: B/A^^F/- | %218
 F/GA/- | A/Bc/- | c/de/- | e/c[Q:1/4=44]"^44"d/- |"^ritard."[Q:1/4=40]"^39" d<B- | %223
 !fermata![DB])[Q:1/4=48]"^48" z/ (F/- | F/Bd/- | d/cA/- | A/Bc/- |!<(! c/d^e/- | e/fg/- | %229
 g/!<)!^e[Q:1/4=44]"^44"f/- |"^ritard."[Q:1/4=40]"^40" f<!mp!d- | %231
 !fermata![Fd])[Q:1/4=48]"^48" z/ (d/- |!>(! d/ec/- | %233
[Q:1/4=46]"^46" c/"^ritard."d[Q:1/4=44]"^44"B/- | B/B!>)!G/- | G/[Q:1/4=36]"^36"^^F[Q:1/4=32]A/- | %236
 !fermata![DA])[Q:1/4=46]"^46" z/ (D/- | D/GA/- | A/!<(!Bc/- | c/[Q:1/4=44]"^44"!fermata!dc/- | %240
[Q:1/4=48]"^48" c/!<)!!mp!B/) z/ (B/- | %241
[Q:1/4=46]"^46" B/[Q:1/4=40]"^40"B[Q:1/4=36][Q:1/4=26]"^26"A/- |1[Q:1/4=50]"^50" A/!p!G(B/ :|2 %243
[Q:1/4=44]"^44" (A/)!p!G)A/- || A/!<(!Bd/- | %245
"^ritardando"[Q:1/4=40]"^40" d/)!<)!g[Q:1/4=37]"^37"!mp!!>(!(A,/- | %246
 A,/[Q:1/4=32]"^32"B,)[Q:1/4=20]"^20"[Q:1/4=12]"^12"D/-!>)! | !fermata![DG]4 |] %248
[K:G][M:2/4][Q:1/4=82]!pp!!<(! (.B2 B>B)!<)! |S (B_Be[A-_e] | dGc>B | [GB]2 [FA]2) | %252
 z ([Bdg][Adf][G^ce] | [FAd]4- | x dc>B |O [GB]2 [FA]2) :: %256
[Q:1/4=102]"^Schneller"!pp! z/ .[B,EG]/ z/ .[B,EG]/ z/ .[CEF]/ z/ .[CEF]/ | %257
 z/ .[B,^DF]/ z/ .[B,DF]/ z/ .[B,EG]/ z/ !>![G,B,=D]/ | %258
 z/ .[G,CE]/ z/ .[G,CE]/ z/ .[A,CD]/ z/ .[A,CD]/ | %259
 z/ .[G,B,D]/ z/ .[G,B,D]/ z/[Q:1/4=78]"^78" [G,-CE-]/ [G,B,E] :|2!pp![Q:1/4=82]"^82" (.B2 B>B) || %261
!f![Q:1/4=96]"^96" (B/c/A/B/ G) [^GBe] |2 z [Ace] z [Acd] || (B/c/A/B/ G) [^A^cf] | %264
 z [Bdf] [=Adf][Bdg] || (g2 f2 |!>(! ^d2 e2)!>)! | %267
"^ritard."[Q:1/4=93]"^93" (=d2[Q:1/4=87]"^87" c2 |[Q:1/4=84]"^84"!>(! ^A2[Q:1/4=80]"^80" B2)!>)! |2 %269
!p![Q:1/4=82]"^84" (.B2!<(! B>B)!<)! |: %270
!pp![Q:1/4=102]"^Schneller" z/ .[B,EG]/ z/ .[B,EG]/ z/ .[CEF]/ z/ .[CEF]/ | %271
 z/ .[B,^DF]/ z/ .[B,DF]/ z/ .[B,EG]/ z/ !>![G,B,=D]/ | %272
 z/ .[G,CE]/ z/ .[G,CE]/ z/ .[A,CD]/ z/ .[A,CD]/ | %273
 z/ .[G,B,D]/ z/ .[G,B,D]/ z/[Q:1/4=78]"^78" [G,-CE-]/ [G,B,E] :|[Q:1/4=82]"^82" (.B2 B>B) | %275
 (B_Be[A-_e] | dGc>B | [GB]2 [FA]2) |!p! z ([Bdg][Adf][G^ce] | [FAd]4- |[Q:1/4=74]"^74" x dcz/F/) | %281
 ([CF]2 [B,G]2) |][M:2/4][Q:1/4=44]!p! z2 (Bf/B/ | B<!>!g) (Bf/B/ | B<!>(!!>!g) (Bf/B/ | %285
 B<e) (Bf/!>)!B/ | B<!>!b) (Bf/B/ | B<!>!g) (Bf/B/ | B<!>(!!>!g) (Bf/B/ | B<e) Bf/!>)!B/ || %290
[K:E]!pp! ([Begb]2 [dfb]2 | [GBe]2) ([A,DFB]2 | [G,B,E]2)[K:bass]!>(! ([B,D]2 | CD/C/ B,2)!>)! | %294
[K:treble] ([Begb]2 [Adfb]2 | [GBe]2) ([A,DFB]2 | [G,B,E]2)[K:bass]!>(! ([B,D]2 | CD/C/ B,2)!>)! || %298
 [B,-=D]2 C2 | E4 |[K:treble] A2 G2- | ^A2 B2 |!p! B2 =A2 | F2 =G2 | %304
 B2"^ritard."!>(! A2[Q:1/4=42]"^42" | F2[Q:1/4=40]!>)! B2[Q:1/4=36] || %306
[K:G]!p![Q:1/4=44]"^44" z2 (Bf/B/ | B<g) (Bf/B/ | B<b) (cb/c/ | %309
"^ritardando     -     -     -     -     -     -     -     -" c<[Q:1/4=41]"^41"a) (Ba/B/[Q:1/4=39]"^39" | %310
 B<g) (Ag/A/[Q:1/4=36]"^36" | A<[Q:1/4=28]"^28"f!pp! e2-[Q:1/4=20]"^20" | !fermata![Ae]4- | %313
 [Ae]2) z2 |][M:4/4]!p![Q:1/4=72]!<(! ([DF]4 [DG]4 | [Dc]6 [DB]2!<)! | A4 B3 G | B4 A4) | %318
 ([=F^G]4!<(! [EA]4 |[Q:1/4=74]"^74" [=Fd]4[Q:1/4=89][Q:1/4=46][Q:1/4=78]"^78" [Ec]4)!<)! | %320
 z2!pp! ([D=FB]4- [DFB]z/[B,E^G]/) |!>(! (([B,E-^G]4 [CEA]2))!>)! z2 |!p! (F4 =G4 | !fermata!c8) | %324
 (^D4 E4 | %325
[Q:1/4=65]"^65""^ritard." A4-)[Q:1/4=56][Q:1/4=50] !fermata![CA]2 !fermata!z[Q:1/4=56]"^56" (3z!pp!!<(! (AB (3cBA!<)![Q:1/4=52]"^52" f3 e e2 !fermata!^d4)[Q:1/4=40]"^40"{/d} (3:2:6x/ d/[Q:1/4=52]"^52"e/d/^^c/d/ e8-[Q:1/4=54]"^54" (3e (e[Q:1/4=48]"^48"f (3gfe"_ritard."!p![Q:1/4=45]"^45"!>(! (3.g'[Q:1/4=40]"^40"[Q:1/4=41]"^41".e'[Q:1/4=36]"^36".^c'[Q:1/4=30]"^30" (3._b.g[Q:1/4=12]"^12".e)!>)! | %326
!p![Q:1/4=74]"^74"!<(! ([DF]4 [DG]4 | [Dc]6!<)! [DB]2 | A4 B3 G | B4 A4) |!<(! ([=F^G]4 [EA]4 | %331
 [=Fd]4[Q:1/4=46][Q:1/4=62][Q:1/4=30][Q:1/4=78]"^78" [Ec]4)!<)! | %332
"^dim." z2!pp!"^ritardando"[Q:1/4=74]"^74"!>(! ([D=FB]4- [DFB]z/[B,E^G]/) | %333
[Q:1/4=66]"^66" (([B,E-^G]4 [CEA]2)) z2 |[Q:1/4=62]"^62" z2!ppp! ([C_EA]4- [CEA]z/[A,DF]/) | %335
[Q:1/4=58]"^58" (([A,D-F]4 [G,DG]2))[Q:1/4=52]"^52" z2 | z2 [G,CE]4- [G,CE]2 | %337
 x2[Q:1/4=44]"^44"[I:staff +1] [F,A,D]4- [F,A,D]2!>)! | !fermata![G,D]8 |] %339
V:2
!p!!ped! (3B,D[I:staff -1]G!ped-up!!ped![I:staff +1] (3_B,E[I:staff -1]G!ped-up! | %1
!ped![I:staff +1] (3A,D[I:staff -1]F!ped-up!!ped![I:staff +1] (3CD[I:staff -1]A!ped-up! | %2
!ped![I:staff +1] (3B,D[I:staff -1]G!ped-up!!ped![I:staff +1] (3_B,E[I:staff -1]G!ped-up! | %3
!ped![I:staff +1] (3A,D[I:staff -1]F!ped-up!!ped![I:staff +1] (3CD[I:staff -1]A!ped-up! | %4
!ped![I:staff +1] (3B,D[I:staff -1]G!ped-up!!ped![I:staff +1] (3G,D[I:staff -1]G!ped-up! | %5
!ped![I:staff +1] (3G,E[I:staff -1]G!ped-up!!ped![I:staff +1] (3G,C[I:staff -1]G!ped-up! | %6
!ped![I:staff +1] (3G,C[I:staff -1]G!ped-up!!p!!ped![I:staff +1] (3F,C[I:staff -1]F!ped-up! | %7
!ped![I:staff +1] (3D,B,[I:staff -1]G[I:staff +1] (3G,B,[I:staff -1]G!ped-up! :: %8
!ped![I:staff +1] (3E,B,[I:staff -1]E!ped-up!!ped![I:staff +1] (3A,,A,[I:staff -1]E!ped-up! | %9
!ped![I:staff +1] (3D,A,[I:staff -1]D!ped-up!!ped![I:staff +1] (3B,,G,[I:staff -1]D!ped-up! | %10
!ped![I:staff +1] (3C,G,[I:staff -1]C!ped-up!!ped![I:staff +1] (3F,,F,[I:staff -1]C!ped-up! | %11
!ped![I:staff +1] (3B,,F,[I:staff -1]B,!ped-up!!ped![I:staff +1] (3G,,G,[I:staff -1]B,!ped-up! | %12
!ped![I:staff +1] (3C,G,[I:staff -1]C!ped-up!!ped![I:staff +1] (3D,A,[I:staff -1]D!ped-up! | %13
!ped![I:staff +1] (3D,G,[I:staff -1]D!ped-up!!ped![I:staff +1] (3G,,A,[I:staff -1]!fermata!D!ped-up! | %14
!p!!ped![I:staff +1] (3B,D[I:staff -1]G!ped-up!!ped![I:staff +1] (3_B,E[I:staff -1]G!ped-up! | %15
!ped![I:staff +1] (3A,D[I:staff -1]F!ped-up!!ped![I:staff +1] (3CD[I:staff -1]A!ped-up! | %16
!ped![I:staff +1] (3B,D[I:staff -1]G!ped-up!!ped![I:staff +1] (3_B,E[I:staff -1]G!ped-up! | %17
!ped![I:staff +1] (3A,D[I:staff -1]F!ped-up!!ped![I:staff +1] (3CD[I:staff -1]A!ped-up! | %18
!ped![I:staff +1] (3B,D[I:staff -1]G!ped-up!!ped![I:staff +1] (3G,D[I:staff -1]G!ped-up! | %19
!ped![I:staff +1] (3G,E[I:staff -1]G!ped-up!!p!!ped![I:staff +1] (3G,C[I:staff -1]G!ped-up! | %20
!ped![I:staff +1] (3G,C[I:staff -1]G!ped-up!!ped![I:staff +1] (3F,C[I:staff -1]F!ped-up! | %21
!ped![I:staff +1](3xB,[I:staff -1]G[I:staff +1] (3B,B,[I:staff -1]G :|[I:staff +1] x2 | %23
[K:D][M:3/4]!mp! ([D,A,]2!ped-up! | [E,A,])z/[^D,A,]/ [E,A,]2 ([G,A,]2 | %25
 [F,A,])z/[^E,A,]/ [F,A,]2 ([F,A,]2 | [=E,A,])z/[D,A,]/ [C,A,]2 ([A,,A,]2 | %27
 [D,A,])z/[E,A,]/ [F,A,]2 ([D,A,]2 | [E,A,])z/[^D,A,]/ [E,A,]2 ([G,A,]2 | %29
 [F,A,])z/[^E,A,]/ [F,A,]2 A,B, |[K:bass] CDEF[K:treble] (F>^G |[K:treble] ^G2 A2) :: %32
[K:bass][K:treble]!p! EF | =GAGFGF |[K:bass] E4!>(! D2- | D2 =C2!>)! B,2 | A,4 A,2 | %37
!p! [E,A,]z/[^D,A,]/ [E,A,]2 ([G,A,]2 | [F,A,])z/[^E,A,]/ [F,A,]2 ([F,A,]2 | %39
 [=E,A,])z/[D,A,]/ [C,A,]2 A,2 | [D,A,]z/[E,A,]/ [F,A,]2!mp! ([D,A,]2 | %41
 [E,A,])z/[^D,A,]/ [E,A,]2 [G,A,]2 | (A,B,CD DE |[K:treble] FG[I:staff -1]AB)Bc | %44
!p![I:staff +1] G2 F2 :| x2 |[M:2/4][K:bass]!p! B,,/ z/ x .B,,.[F,D] | .E,.[B,E].B,,.[B,D] | %48
 E,/ z/ x .E,.[EG] | .F,.[E^A] .B,/ z/ x | B,,/ z/ x .B,,.[F,D] | .E,.[B,E].B,,.[B,D] | %52
 E,/ z/ x .E,.[EG] | .F,.[E^A] .B,/ z/ x |: B,/ z/ x .B,.[DG] | .A,.[=CG].D,.C | z x .B,,.[G,B,] | %57
 .A,,.[F,=C].B,,.[F,A,] |!mp!!ped! z x !>![=C,,G,,]2-!ped-up! | %59
!ped! [C,,G,,]2 !>![=C,,G,,]2-!ped-up! |!ped! [C,,G,,] .=C/.G,/ z!ped-up! (^G,/A,/ | %61
!<(! ^A,/B,/^B,/C/ D/^D/E/^E/)!<)! |!p! B,,/ z/ x .B,,.[F,D] | .E,.[B,E].B,,.[B,D] | %64
 E,/ z/ x .E,.[EG] |1 .F,.[E^A] .B,/ z/ x :|2 .F,[K:treble].[E^A] [B,DB]2 |] %67
[M:2/4][K:bass]!p! A,[I:staff -1]B/G/[I:staff +1] C[I:staff -1]A/G/ | %68
[I:staff +1] D[I:staff -1]=F/D/[I:staff +1] A,[I:staff -1]C/A,/ | %69
[I:staff +1] A,,[I:staff -1]B/G/[I:staff +1] C[I:staff -1]A/G/ | %70
[I:staff +1] D[I:staff -1]=F/D/[I:staff +1] A,[I:staff -1]C/A,/ ||[I:staff +1] D,2 D,2 | D,2 D,2 | %73
 D,,2 D,2 | D,2 D,2 || (B,,2 F,/E,/D,/[I:staff -1]F/ |[I:staff +1] E,2!ped! A,2)!ped-up! | %77
!pp! (B,,2 F,/E,/D,/[I:staff -1]F/ |[I:staff +1] E,2!ped! A,2)!ped-up! | %79
!p! A,[I:staff -1]B/G/[I:staff +1] C[I:staff -1]A/G/ | %80
[I:staff +1] D[I:staff -1]=F/D/[I:staff +1] A,[I:staff -1]C/A,/ | %81
[I:staff +1] A,,[I:staff -1]B/G/[I:staff +1] C[I:staff -1]A/G/ | %82
[I:staff +1] D[I:staff -1]=F/D/[I:staff +1] A,C/-A,/- |!ped! [A,C]2!ped-up! z2 |][M:2/4] z | %85
!p! [A,,,A,,] z z (C, |:!<(! D,F,B,!<)!A,) |!p! A,,/A,/ A,- A, A,,- | A,,4 | %89
!<(!{/A,,,} (A,,C,F,!<)!E, |!p! [D,,D,]3) ([=C,,=C,] | [B,,,B,,]3 [_B,,,_B,,] |1 %92
 [A,,,A,,][=B,,,=B,,][^B,,,^B,,][C,,C,]- | [C,,C,]A,,,) z C, :|2 %94
 ([A,,,A,,][=B,,,=B,,][C,,C,]!>![=C,,=C,]- || [C,,C,]3) E, |!<(! =F,A,D!<)!=C |!p! =C,/D/ D x E, | %98
 =F,2 E,2 |!p! ([=C,,=C,]3 [^C,,^C,] | [D,,D,][E,,E,][=F,,=F,][^F,,^F,] | %101
 [G,,G,][A,,A,]!>![_B,,_B,][=B,,=B,] | A,,2- A,,2) |] x2 | %104
[K:A][M:3/4]!f!!ped! [A,,A,][C,C]!ped-up! | %105
!ped! [E,E]>[^B,,^B,]!ped-up!!ped! !^![C,C]2!ped-up!!ped! !^![A,,A,]2!ped-up! | %106
!ped! !^![=B,,=B,]2!ped-up!!ped! !^![E,,E,]2!ped-up!!ped! [F,,F,][G,,G,]!ped-up! | %107
!ped! [A,,A,]>[^E,,^E,]!ped-up!!ped! !^![F,,F,]2!ped-up!!ped! !^![D,,D,]2!ped-up! | %108
!ped! !^![=E,,=E,]2!ped-up!!ped! !^![A,,,A,,]2!ped-up!!mf!!ped! [A,,,A,,][C,,C,]!ped-up! | %109
!ped! [E,,E,]>[^B,,,^B,,]!ped-up!!ped! !^![C,,C,]2!ped-up!!ped! !^![A,,,A,,]2!ped-up! | %110
!ped! !^![=B,,,=B,,]2!ped-up!!ped! !^![E,,,E,,]2!ped-up!!ped! [F,,,F,,][G,,,G,,]!ped-up! | %111
!ped! [A,,,A,,]>[^E,,,^E,,]!ped-up!!ped! !^![F,,,F,,]2!ped-up!!ped! !^![D,,,D,,]2!ped-up! | %112
!ped! !^![=E,,,=E,,]2!ped-up!!ped! !^![A,,,E,,]2!ped-up! |:!ff!!ped! [A,,,A,,]C,!ped-up! | %114
!ped! !>![D,,D,][A,,,A,,]!ped-up!!ped![=G,,,=G,,][F,,,F,,]!ped-up!!ped! [F,,,F,,]2!ped-up! | %115
!ped! !>![D,,D,][B,,,B,,]!ped-up!!ped![A,,,A,,][=G,,,=G,,]!ped-up!!ped! [G,,,G,,]2!ped-up! | %116
!ped! !>![A,,,A,,][E,,,E,,]!ped-up!!ped![D,,,D,,][C,,,C,,]!ped-up!!ped! [C,,,C,,]2!ped-up! | %117
!ped! !>![D,,D,][A,,,A,,]!ped-up!!ped![=G,,,=G,,][F,,,F,,]!ped-up!!ped! [F,,,F,,]2!ped-up! | %118
!ped! [=G,,,=G,,][A,,,A,,]!ped-up!!ped![B,,,B,,][=C,,=C,]!ped-up!!ped![D,,D,][E,,E,]!ped-up! | %119
!ped! !^![D,,D,]2!ped-up!!ped! !^![B,,,B,,]2!ped-up!!ped! !^![A,,,A,,]2!ped-up! | %120
!ped! !^![=G,,,=G,,]>[F,,,F,,]!ped-up!!ped! !^![E,,,E,,]2!ped-up!!ped! !^![A,,,A,,]2!ped-up! | %121
!ped! !^![D,,D,]2!ped-up! z2 :|!f!!ped! [A,,A,][C,C]!ped-up! | %123
!ped! [E,E]>[^B,,^B,]!ped-up!!ped! !^![C,C]2!ped-up!!ped! !^![A,,A,]2 | %124
!ped! !^![=B,,=B,]2!ped-up!!ped! !^![E,,E,]2!ped-up!!ped! [F,,F,][G,,G,]!ped-up! | %125
!ped! [A,,A,]>[^E,,^E,]!ped-up!!ped! !^![F,,F,]2!ped-up!!ped! !^![D,,D,]2!ped-up! | %126
!ped! !^![=E,,=E,]2!ped-up!!ped! !^![A,,,A,,]2!mf!!ped-up!!ped! [A,,,A,,][C,,C,]!ped-up! | %127
!ped! [E,,E,]>[^B,,,^B,,]!ped-up!!ped! !^![C,,C,]2!ped-up!!ped! !^![A,,,A,,]2!ped-up! | %128
!ped! !^![=B,,,=B,,]2!ped-up!!ped! !^![E,,,E,,]2!ped-up!!ped! [F,,,F,,][G,,,G,,]!ped-up! | %129
!ped! [A,,,A,,]>[^E,,,^E,,]!ped-up!!ped! !^![F,,,F,,]2!ped-up!!ped! !^![D,,,D,,]2!ped-up! | %130
!ped! !^![=E,,,=E,,]2 !^![A,,,E,,]2 |] x2!ped-up![K:F][M:4/4]!ped! z2!ped-up! |:!p! F,,2 [C,A,]6- | %133
!ped! [C,A,]2 D4!ped-up! (CB, | %134
!ped! A,2)!ped-up!!ped! (B,A,!ped-up!!ped! G,2)!ped-up!!ped!!<(! ([A,,F,]!ped-up!!ped![C,G,] | %135
!ped! [F,A,]2!<)!!mp!!ped-up!!ped! G,4)!ped-up!!ped! x2!ped-up! |!ped!!p! F,,2 [C,A,]6-!ped-up! | %137
!ped! [F,,C,A,]2 E6!ped-up! |!ped! D3 [F,=C-]!ped-up!!ped! [G,C]3!ped-up!!ped! ([A,C] | %139
!ped! =B,G!ped-up!!ped!A,B,!ped-up!!ped! [C,C])D,_B,,G,,!ped-up! :|!ped!!p! F,,2 [C,A,]6!ped-up! | %141
!ped! z G, ^F,A, D!ped-up![I:staff -1]^F A2 | %142
!ped![I:staff +1] D3!ped-up! [C,^F,]!ped-up!!ped! [D,G,]3!ped-up!!ped! _E, | %143
!ped! B,D!ped-up!!ped!G,A,-!ped-up!!ped! A,G,G,,A,,!ped-up! |!ped!!p!!ped! B,,,2 [F,D]6!ped-up! | %145
!ped! z [G,D]!ped-up!!ped! ^CE A[I:staff -1]^c e2 | %146
!ped![I:staff +1] A3 [G,^C]!ped-up!!ped! [A,D]3!ped-up!!ped! B, | %147
!ped![I:staff -1] FA!ped-up!!ped![I:staff +1]D[^CE]!ped-up!!ped! D2!ped-up!!ped! [B,=C]C,!ped-up! | %148
!p!!ped! F,,2 [C,A,]6-!ped-up! |!ped! [C,A,]2!ped-up! D4 (CB, | %150
!ped! A,2)!ped-up!!ped! (B,A,!ped-up!!ped! G,2)!ped-up!!ped!!<(! ([A,,F,]!ped-up!!ped![C,G,] | %151
!ped! [F,A,]2!<)!!mp!!ped-up!!ped! G,4)!ped-up!!ped! x2!ped-up! |!ped!!p! F,,2 [C,A,]6-!ped-up! | %153
!ped! [F,,C,A,]2!ped! !fermata![G,,=B,,=B,]6!ped-up! | %154
!ped! [C,A,C]2!ped-up!!ped! C4!ped-up!!ped!!ped-up!!ped! [B,,G,]!ped-up!!ped![D,A,]!ped-up! | %155
!ped! [G,B,]2!ped-up!!ped! [C,-G,]2!ped-up! !fermata![F,,C,]4 |][M:2/4]!ped! z | %157
 F,[K:treble] [CA]2!ped-up! [CA] | z!ped! [DB]G,[DB]!ped-up! | %159
[K:bass]!ped! z E2!ped-up!!ped! E!ped-up! |!ped! z [A,F]2 [A,F]!ped-up! | z[K:treble] [CA]2 [CF] | %162
 z!ped! [DB]G,[DB]!ped-up! |[K:bass]!ped! z E2!ped-up!!ped! E!ped-up! |!ped! z C2 F!ped-up! |: %165
!ped! z [B,E]2!ped-up!!ped! [B,E]!ped-up! |!ped! z !>!D2!ped-up! D | %167
!ped! z (!>![G,D]2 [^F,D])!ped-up! |!ped! z !>![G,D]2 [G,D]!ped-up! | z (!>!D2 C) | %170
 z!ped! !>![=B,D]2 B,!ped-up! | z (!>![A,E]2 [^G,E]-) | [G,E] [A,E]2 [E,C] | z [C,A,]2 [C,A,] | %174
 z!ped! [D,B,]2 [B,D]!ped-up! |!ped! z E2!ped-up!!ped! E!ped-up! |!ped! z [A,C]2 [A,F]!ped-up! | %177
!<(!!ped! z[K:treble] [CA]2!ped-up! [CF] | %178
!ped! z!<)! [DB]2!ped!!ped-up! !arpeggio![=B,D=B-]!ped-up! | %179
!ped! z [FA]2!ped!!ped-up! [E_B]!ped-up! |1!ped! z [CA]2 [CA]!ped-up! :|2 %181
!ped! z [CA]2 [CA]!ped-up! || ([=B,_A][CG])([B,A][CG]) | z F3- | F2 C2 |[K:bass] A,3 A, | %186
 (!>![=B,,_A,][C,G,])(!>![B,,A,][C,G,]) | z F,3- | F,2 C,2 | A,,4 |] %190
[K:C][M:3/4][K:treble]!ped!!p! [EG]4!ped-up! [^D^F]2 |!ped! [EG]4!ped-up! [CG]2 | %192
!ped! [DG]4!ped-up! [B,G]2 |!ped! [CG]4!ped-up! [CE]2 |!ped!!mf! (E4!ped-up! F2 | %195
!ped! E4!ped-up! C2 |!ped! D4!ped-up! E2 |!ped! C4!ped-up! C2) :: %198
[K:bass]!ped![K:bass][K:bass] z2 C4-!ped-up! |!ped! C2 C4-!ped-up! |!ped! C2 C2!ped-up! ^C2- | %201
!ped! C2 D2!ped-up! E2 |!ped! (D,2 D2)!ped-up! [G,,G,]2 |!ped! (A,,2 A,2)!ped-up! [A,,,A,,]2 | %204
!ped! (D,,2 D,2)!ped-up! [_A,,,_A,,]2 |!ped! [G,,,G,,]2 G,2!ped-up! [G,,,G,,]2 | %206
!ped! C,,2 E,2!ped-up! F,2 |!ped!!f! E,4!ped-up! C,2 |!ped! D,4!ped-up! E,2 | %209
!ped! C,4!ped-up! G,,2 |!ped! [G,,E,]4!ped-up! [A,,F,]2 |!ped! [G,,E,]4!ped-up! [E,,C,]2 | %212
!ped! [F,,D,]4!ped-up! [G,,E,]2 |!ped! [E,,C,]4!ped-up! C,2 :| x2 |[K:B][M:2/8]!ped! z/ | %216
!pp! G,,/ (D/G,/D,/)!ped-up! |:!ped! G,,/ (D/^^F,/D,/)!ped-up! |!ped! G,,/ (D/G,/D,/)!ped-up! | %219
!ped! =G,,/ (E/C/E,/)!ped-up! |!ped! F,,/ (F/B,/F,/)!ped-up! |!pp!!ped! F,,/ (F/A,/F,/)!ped-up! | %222
!ped! B,,/ F/B,/F,/- | !fermata![F,B,F]!ped-up! z |!pp!!ped! B,,/ F/B,/F,/!ped-up! | %225
!ped! B,,/ =G/C/F,/!ped-up! |!ped! B,,/ F/B,/F,/!ped-up! |!ped! G,,/ ^E/B,/^E,/!ped-up! | %228
!ped! A,,/ A/D/A,/!ped-up! |!ped! A,,/!pp! B/^^C/A,/!ped-up! |!ped! D,/ A/D/A,/-!ped-up! | %231
 !fermata![A,DA] z |!ped! D,/ A/!ped-up!E/C/ |!ped! D,/ B/D/B,/!ped-up! | %234
!ped! D,/ ^E/B,/G,/!ped-up! |!ped! D,,/ ^^F/A,-!ped-up! | !fermata![A,F]!ped-up!!ped! z | %237
!pp! G,,/ D/G,/D,/ |!ped! E,,/ E/G,/=G,/!ped-up! |!ped! F,,/ E/F,/E,/!ped-up! | %240
!ped! B,,,/!pp! D/F,/D,/!ped-up! |!ped! D,,/ D/^^F,/D,/!ped-up! |1 %242
!pp!!ped! G,,/ (D/G,/D,/)!ped-up! :|2!pp!!ped! G,,/ D/G,/D,/!ped-up! || %244
!ped! G,,/ D/G,/D,/!ped-up! |!ped! G,,/ D/G,/D,/!ped-up! |!pp!!ped! G,,/D/G,/D,/!ped-up! | %247
 !fermata!G,,,4 |][K:G][M:2/4]!ped! z!p![I:staff -1] [EG]!ped-up!!ped![^DF][=D=F] | %249
!ped! [^CE]3!ped-up!!ped! [=C_E] |!ped![I:staff +1] [B,D]2!ped-up!!ped! [A,D]>[G,D]!ped-up! | %251
!ped! D2!ped-up!!ped! D2!ped-up! |!p!!ped! .D2!ped-up!!ped! .D>.D!ped-up! | %253
!ped! DC!ped-up!!ped!ED!ped-up! | C!ped![B,D]!ped-up!!ped![A,D]>[G,D]!ped-up! | %255
!ped! D2!ped-up!!ped! D2!ped-up! :: (E,F,/G,/ A,A,, | B,,B,,,E,,) (G,, | C,D,/E,/ =F,=F,, | %259
 G,,G,,,C,,) !>!B,,, :|2!ped! z[I:staff -1] ([EG]!ped-up!!ped![^DF][=D=F])!ped-up! || %261
[I:staff +1] (D/E/C/D/ B,) [E,E] |2 A,, [E,E] D, [D,F,D] || (D/E/C/D/ B,) [F,F] | %264
 B,, [F,F] [D,D] [G,D] ||!p!!ped! E,[B,EG]!ped-up!!ped!A,,!ped-up![A,CF] | %266
!ped! B,,[F,A,^D]!ped-up!!ped!C,[E,G,E]!ped-up! |!ped! =D,[F,=D]!ped-up!!ped!E,[G,C]!ped-up! | %268
!ped! F,[^CE]!ped-up!!ped!B,[^DF]!ped-up! |2 %269
!ped! z[I:staff -1] ([EG]!ped-up!!ped![^DF][=D=F])!ped-up! |:[I:staff +1] (E,F,/G,/ A,A,, | %271
 B,,B,,,E,,) (G,, | C,D,/E,/ =F,=F,, | G,,G,,,C,,) !>!B,,, :| %274
!ped! z[I:staff -1] [EG]!ped-up!!ped![^DF]!ped-up![=D=F] |!ped! [^CE]3!ped-up!!ped! [=C_E] | %276
!ped![I:staff +1] [B,D]2!ped-up!!ped! [A,D]>[G,D]!ped-up! |!ped! D2!ped-up!!ped! D2!ped-up! | %278
!ped! .D2!ped-up!!ped! .D>.D!ped-up! |!ped! (DC!ped-up!!ped!ED!ped-up! | %280
 C!ped![B,D]!ped-up!!ped![A,E]z/[D,A,]/)!ped-up! |!ped! D,4!ped-up! |] %282
[M:2/4]!ped! (B,C/B,/!ped-up!!ped! B,<F) |!ped! (B,C/B,/!ped-up!!ped! B,<F)!ped-up! | %284
!ped! (B,C/B,/!ped-up!!ped! B,<F)!ped-up! |!ped! (B,C/B,/!ped-up!!ped! B,<F)!ped-up! | %286
!ped! (B,C/B,/!ped-up!!ped! B,<F)!ped-up! |!ped! (B,C/B,/!ped-up!!ped! B,<F)!ped-up! | %288
!ped! (B,C/B,/!ped-up!!ped! B,<F)!ped-up! |!ped! (B,C/B,/!ped-up!!ped! B,<F)!ped-up! || %290
[K:E]!ped! (B,,C,/B,,/!ped-up!!ped! B,,/G,F,/!ped-up! | %291
!ped! B,,C,/B,,/!ped-up!!ped! B,,/G,F,/)!ped-up! |!ped! (B,,C,/B,,/!ped-up!!ped! B,,2!ped-up! | %293
!ped! F,,2!ped-up!!ped! [F,,,F,,]/[G,,,G,,][F,,,F,,]/)!ped-up! | %294
!ped! ([E,,,E,,]C,/B,,/!ped-up!!ped! B,,/G,F,/!ped-up! | %295
!ped! B,,C,/B,,/!ped-up!!ped! B,,/G,F,/)!ped-up! |!ped! (B,,C,/B,,/!ped-up!!ped! B,,2!ped-up! | %297
!ped! F,,2!ped-up!!ped! [F,,,F,,]/[G,,,G,,][F,,,F,,]/)!ped-up! || %298
!pp!!ped! (B,,,C,,/B,,,/!ped-up!!ped! F,,,/F,,F,,,/!ped-up! | %299
!ped! E,,,F,,,/E,,,/!ped-up!!ped! A,,,/A,,G,,/!ped-up! | %300
!ped! F,,G,,/F,,/!ped-up!!ped! C,,/C,C,,/!ped-up! | %301
!ped! F,,/F,F,,/!ped-up!!ped! B,,,/B,,B,,/)!ped-up! |!ped! B,=C/B,/!ped-up!!ped! B,/=DC/!ped-up! | %303
!ped! B,A,!ped-up!!ped! =G,/=CB,/!ped-up! |!ped! B,=C/B,/!ped-up!!ped! B,/=DC/!ped-up! | %305
!ped! B,A,!ped-up!!ped! =G,/B,A,/!ped-up! ||[K:G]!ped! (G,C/B,/!ped-up!!ped! B,<F)!ped-up! | %307
!ped! (B,C/B,/!ped-up!!ped! B,<F)!ped-up! |!ped! (B,C/B,/!ped-up!!ped! C<B)!ped-up! | %309
!>(!!ped! (CD/C/!ped-up!!ped! B,<A)!ped-up! |!ped! (B,C/B,/!ped-up!!ped! A,<G)!ped-up! | %311
!ped! (A,B,/A,/-!ped-up!!ped! [E,A,CE]2-!ped-up! | !fermata![E,A,CE]4- | [E,A,CE]2)!>)! z2 |] %314
[M:4/4]!p! ([C,A,]4 [B,,G,]4 | [A,,F,]6 [B,,G,]2 | [C,G,]4 [^C,G,]4 | G,4 F,4) | B,4 A,4 | %319
 ^G,4 x4 | z2 (D,4- D,z/E,/) | (E,4 A,,2) z2 |!ped! (C,4!ped-up!!ped! B,,4 | %323
!ped! !fermata!A,,8)!ped-up! |!ped! (A,,4!ped-up!!ped! G,,4!ped-up! | %325
!ped! F,,4-) !fermata![F,,A,,D,]2 !fermata!z x!ped-up! x x2 !fermata!z4 x8!<(![I:staff -1] ^A,6!<)!!pp! B,2 (B2 !fermata!^A6)!ped!!ped-up! | %326
!p![I:staff +1] ([C,A,]4 [B,,G,]4 | [A,,F,]6 [B,,G,]2 | [C,G,]4 [^C,G,]4 | G,4 F,4) | B,4 A,4 | %331
 ^G,4 x4 | z2 (D,4- D,z/E,/) | (E,4 A,,2) z2 | z2 (C,4- C,z/D,/) | (D,4 B,,2) z2 | z2 C,4- C,2 | %337
 z2 [D,,C,]4- [D,,C,]2 | !fermata![G,,,B,,]8 |] %339
V:3
 G, z ^C, z | D, z F, z | G, z ^C, z | D, z F, z | G, z G,2- | G,2 E, z | D, z D, z | G,, z G, z :: %8
 (E,2 A,,2 | D,>C, B,,2) | (C,2 F,,2 | B,,>A,, G,,2) | (C,2 C,2 | B,,>A,, !fermata!G,,2) | %14
 G, z ^C, z | D, z F, z | G, z ^C, z | D, z F, z | G, z G,2- | G,2 E, z | D, z D, z | [G,,D,]4 :| %22
 x2 |[K:D][M:3/4] x2 | x6 | x6 | x6 | x6 | x6 | x4 (F,2 |[K:bass] =E,2) x2[K:treble] E2- | %31
[K:treble] E2 A,2 ::[K:bass][K:treble] A,2 | B,4 B,2 |[K:bass] =CB,A,G, G,F, | G,F,E,F,G,D, | %36
 D,4 D,^D, | x6 | x6 | x4 A,,C, | x6 | x6 | F,4 G,2 |[K:treble] A,6 | D4 :| x2 | %46
[M:2/4][K:bass] x4 | x4 | x4 | x4 | x4 | x4 | x4 | x4 |: x4 | x4 | x4 | x4 | x4 | x4 | %60
 x2 [F,,F,]2- | [F,,F,]4 | x4 | x4 | x4 |1 x4 :|2 x[K:treble] x3 |][M:2/4][K:bass] A, z C z | %68
 D z A, z | A,, z C z | D z A, z || x4 | x4 | x4 | x4 || x2 C,D, | x4 | x2 C,D, | x4 | A, z C z | %80
 D z A, z | A,, z C z | D z A, z | !fermata!A,,2 x2 |][M:2/4] x | x4 |: A,,4 | %87
 (A,,/.G,/) (G,/F,/ E,) (A,,, | D,,F,, A,,2) | A,,4 | x4 | x4 |1 x4 | x4 :|2 x4 || x4 | =C,4 | %97
 (=C,/._B,/) (B,/A,/ G,) (=C,, | =F,,A,, =C,2) | x4 | x4 | x4 | A,,A,,, D,,2 |] x2 | %104
[K:A][M:3/4] x2 | x6 | x6 | x6 | x6 | x6 | x6 | x6 | x4 |: x2 | x6 | x6 | x6 | x6 | x6 | x6 | x6 | %121
 x4 :| x2 | x6 | x6 | x6 | x6 | x6 | x6 | x6 | x4 |][K:F][M:4/4] x2 |: F,,8- | F,,2 F,6 | %134
 C,2 C,4 x2 | x2 (C,D, C,B,,G,,A,, | F,,8-) | x (3x/ ^C,/A,/- A,6- | [D,A,]3 x5 | G,4 x4 :| F,,8 | %141
 x C, D,4- D,^F, | G,3 x5 | D,3 D,- D,G,G,,A,, | x8 | x2 A,4- A,^C | D3 x5 | A,4- A,B,- x2 | %148
 F,,8- | F,,2 F,6 | C,2 C,4 x2 | x2 (C,D, C,B,,G,,A,, | F,,8-) | x13/8 !arpeggio!x/ x47/8 | %154
 x2 C,4 x2 | x2 C,C,, x4 |][M:2/4] x | x[K:treble] x3 | B,4 |[K:bass] C,B,A,G, | F, x3 | %161
 F,[K:treble] x A,2 | B,4 |[K:bass] C,B,A,G, | F, A,2 A, |: C,4 | C,4 | C,2 C,2 | C,4 | C,4 | C,4 | %171
 C,2 C,2 | C,2 C,2 | F,,4 | B,,2 G,,2 | C, (B,A,G, | F,2) z2 | F,2[K:treble] A,2 | B,2 G,2 | %179
 C2 C2 |1 F,2 z2 :|2 F,2 z2 || x4 | (=A,_B,G,A, | B,G,CB, |[K:bass] A,F, C,2) | x4 | %187
 (=A,,_B,,G,,A,, | B,,G,,C,C,, | F,,C,, !fermata!F,,,2) |][K:C][M:3/4][K:treble] x2 G,4- | %191
 G,2 G,4- | G,2 G,4- | G,2 G,4- | G,2 G,4- | G,2 G,4- | G,2 G,4- | G,2 G,4 :: %198
[K:bass][K:bass][K:bass] _B,4 A,2 | G,4 F,2 | E,4 _E,2 | D,4 ^C,2 | D,4 x2 | A,,4 x2 | D,,4 x2 | %205
 x6 | x6 | z2 C,,4 | z2 C,,4 | z2 C,,4 | z2 C,,4 | z2 C,,4 | z2 C,,4 | z2 C,,4 :| x2 | %215
[K:B][M:2/8] x/ | x2 |: x2 | x2 | x2 | x2 | x2 | x/ F3/2- | x2 | x2 | x/ =G3/2 | x2 | x2 | x2 | %229
 x/ B3/2 | x/ A3/2- | x2 | x2 | x2 | x2 | x/ ^^F3/2- | x2 | x2 | x/ E3/2 | x/ E3/2 | x2 | x2 |1 %242
 x2 :|2 x2 || x3/2 D,/ | x G,/ x/ | G,,/ x3/2 | x4 |][K:G][M:2/4] x4 | x4 | x4 | G,B,DD,- | D,4 | %253
 x4 | x4 | G,B,DD, :: x4 | x4 | x4 | x4 :|2 x4 || G,2- G, x |2 x4 || G,2- G, x | x4 || x4 | x4 | %267
 x4 | x2 B,2- |2 B,4 |: x4 | x4 | x4 | x4 :| x4 | x4 | x4 | G,B,DD,- | D,4 | x4 | x4 | %281
 ([D,A,]2 G,,2) |][M:2/4] [E,G,]2 [^D,F,]2 | [E,G,]2 [^D,F,]2 | [E,G,]2 [=D,F,]2 | %285
 [C,E,]2 [B,,^D,]2 | [E,G,]2 [^D,F,]2 | [E,G,]2 [^D,F,]2 | [E,G,]2 [=D,F,]2 | [C,E,]2 [B,,^D,]2 || %290
[K:E] E,,2 E,,2 | E,,2 E,,2 | E,,2 F,,/G,,F,,/ | F,,2 x2 | x2 E,,2 | E,,2 E,,2 | E,,2 F,,/G,,F,,/ | %297
 F,,2 x2 || x4 | x4 | x4 | x4 | =C,4 | =D,2 =G,2 | =C,4 | =D,2 ^D,2 ||[K:G] E,2 [^D,F,]2 | %307
 [E,G,]2 [^D,F,]2 | [E,G,]2 A,2 | [D,F,]2 G,2 | [C,E,]2 F,2 | [B,,^D,]2 x2 | x4 | A,,2 x2 |] %314
[M:4/4] x8 | x8 | x8 | D,8 | (D,4 =C,4 | B,,4 C,4) | x8 | x8 | x8 | x2 F,2- !fermata!F,4 | x8 | %325
 x2 ^D,2- x107/4[I:staff -1] !arpeggio!x/8-x/8- [CE]4 x4 | x8 | x8 | x8 |[I:staff +1] D,8 | %330
 (D,4 =C,4 | B,,4 C,4) | x8 | x8 | x8 | x8 | x8 | x8 | x8 |] %339
V:4
 x4 | x4 | x4 | x4 | x2 B,, z | C, z x2 | x4 | x4 :: x4 | x4 | x4 | x4 | x4 | D,4 | x4 | x4 | x4 | %17
 x4 | x2 B,, z | C, z x2 | x4 | (3:2:2x B,2- x2 :| x2 |[K:D][M:3/4] x2 | x6 | x6 | x6 | x6 | x6 | %29
 x6 |[K:bass] x4[K:treble] x2 |[K:treble] x4 ::[K:bass][K:treble] x2 | x6 |[K:bass] x6 | x6 | %36
 G,F,E,D, x2 | x6 | x6 | x6 | x6 | x6 | x6 |[K:treble] A,4 G2- | x4 :| x2 |[M:2/4][K:bass] x4 | %47
 x4 | x4 | x4 | x4 | x4 | x4 | x4 |: x4 | x4 | x4 | x4 | x4 | x4 | x4 | x4 | x4 | x4 | x4 |1 x4 :|2 %66
 x[K:treble] x3 |][M:2/4][K:bass] x4 | x4 | x4 | x4 || x4 | x4 | x4 | x4 || x4 | x4 | x4 | x4 | %79
 x4 | x4 | x4 | x4 | x4 |][M:2/4] x | x4 |: x4 | x4 | x29/8!p! x3/8 | x4 | x4 | x4 |1 x4 | x4 :|2 %94
 x4 || x4 | x4 | x4 | x4 | x4 | x4 | x4 | x4 |] x2 |[K:A][M:3/4] x2 | x6 | x6 | x6 | x6 | x6 | x6 | %111
 x6 | x4 |: x2 | x6 | x6 | x6 | x6 | x6 | x6 | x6 | x4 :| x2 | x6 | x6 | x6 | x6 | x6 | x6 | x6 | %130
 x4 |][K:F][M:4/4] x2 |: x8 | x (3x/ B,,/F,/- x6 | x8 | x8 | x8 | x8 | x8 | x8 :| x8 | x4 D4- | %142
 x8 | x8 | x8 | x4 A4- | x8 | x8 | x8 | x (3x/ B,,/F,/- x6 | x8 | x8 | x8 | x8 | x2 (B,A, G,2) x2 | %155
 x8 |][M:2/4] x | x[K:treble] x3 | x4 |[K:bass] x4 | x4 | x[K:treble] x3 | x4 |[K:bass] x4 | x4 |: %165
 x4 | x4 | x4 | x4 | x4 | x4 | x4 | x4 | x4 | x4 | x4 | x4 | x[K:treble] x3 | x4 | x3/4 x13/4 |1 %180
 x4 :|2 x4 || x4 | x4 | x4 |[K:bass] x4 | x4 | x4 | x4 | x4 |][K:C][M:3/4][K:treble] x6 | x6 | x6 | %193
 x6 | x6 | x6 | x6 | x6 ::[K:bass][K:bass][K:bass] x6 | x6 | x6 | x6 | x6 | x6 | x6 | x6 | x6 | %207
 x6 | x6 | x6 | x6 | x6 | x6 | x6 :| x2 |[K:B][M:2/8] x/ | x2 |: x2 | x2 | x2 | x2 | x2 | x B,- | %223
 x2 | x2 | x2 | x2 | x2 | x2 | x2 | x D- | x2 | x2 | x2 | x2 | x2 | x2 | x2 | x B, | x A, | x2 | %241
 x2 |1 x2 :|2 x2 || x2 | x2 | x2 | x4 |][K:G][M:2/4] x4 | x4 | x4 | x4 | x4 | x4 | x4 | x4 :: x4 | %257
 x4 | x4 | x4 :|2 x4 || x4 |2 x4 || x4 | x4 || x4 | x4 | x4 | x4 |2 x4 |: x4 | x4 | x4 | x4 :| x4 | %275
 x4 | x4 | x4 | x4 | x4 | x4 | x4 |][M:2/4] x4 | x4 | x4 | x4 | x4 | x4 | x4 | x4 ||[K:E] x4 | x4 | %292
 x4 | x4 | x4 | x4 | x4 | x4 || x4 | x4 | x4 | x4 | x4 | x4 | x4 | x4 ||[K:G] x4 | x4 | x4 | x4 | %310
 x4 | x4 | x4 | x4 |][M:4/4] x8 | x8 | x8 | x8 | x8 | x8 | x8 | x8 | x8 | x8 | x8 | x39 | x8 | x8 | %328
 x8 | x8 | x8 | x8 | x8 | x8 | x8 | x8 | x8 | x8 | x8 |] %339
V:5
 x4 | x4 | x4 | x4 | x4 | x4 | x4 | x4 :: x4 | x4 | x4 | x4 | x4 | x2 (3:2:2x A,2 | x4 | x4 | x4 | %17
 x4 | x4 | x4 | x4 | x4 :| x2 |[K:D][M:3/4] x2 | x6 | x6 | x6 | x6 | x6 | x6 | %30
[K:bass] x4[K:treble] x2 |[K:treble] x4 ::[K:bass][K:treble] x2 | x6 |[K:bass] x6 | x6 | x6 | x6 | %38
 x6 | x6 | x6 | x6 | x6 |[K:treble] x6 | x4 :| x2 |[M:2/4][K:bass] x4 | x4 | x4 | x4 | x4 | x4 | %52
 x4 | x4 |: x4 | x4 | x4 | x4 | x4 | x4 | x4 | x4 | x4 | x4 | x4 |1 x4 :|2 x[K:treble] x3 |] %67
[M:2/4][K:bass] x4 | x4 | x4 | x4 || x4 | x4 | x4 | x4 || x4 | x4 | x4 | x4 | x4 | x4 | x4 | x4 | %83
 x4 |][M:2/4] x | x4 |: x4 | x4 | x4 | x4 | x4 | x4 |1 x4 | x4 :|2 x4 || x4 | x4 | x4 | x4 | x4 | %100
 x4 | x4 | x4 |] x2 |[K:A][M:3/4] x2 | x6 | x6 | x6 | x6 | x6 | x6 | x6 | x4 |: x2 | x6 | x6 | x6 | %117
 x6 | x6 | x6 | x6 | x4 :| x2 | x6 | x6 | x6 | x6 | x6 | x6 | x6 | x4 |][K:F][M:4/4] x2 |: x8 | %133
 x8 | x8 | x8 | x8 | x8 | x8 | x8 :| x8 | x8 | x8 | x8 | x8 | x8 | x8 | x8 | x8 | x8 | x8 | x8 | %152
 x8 | x8 | x8 | x8 |][M:2/4] x | x[K:treble] x3 | x4 |[K:bass] x4 | x4 | x[K:treble] x3 | x4 | %163
[K:bass] x4 | x4 |: x4 | x4 | x4 | x4 | x4 | x4 | x4 | x4 | x4 | x4 | x4 | x4 | x[K:treble] x3 | %178
 x4 | x4 |1 x4 :|2 x4 || x4 | x4 | x4 |[K:bass] x4 | x4 | x4 | x4 | x4 |] %190
[K:C][M:3/4][K:treble] x6 | x6 | x6 | x6 | x6 | x6 | x6 | x6 ::[K:bass][K:bass][K:bass] x6 | x6 | %200
 x6 | x6 | x6 | x6 | x6 | x6 | x6 | x6 | x6 | x6 | x6 | x6 | x6 | x6 :| x2 |[K:B][M:2/8] x/ | x2 |: %217
 x2 | x2 | x2 | x2 | x2 | x2 | x2 | x2 | x2 | x2 | x2 | x2 | x2 | x2 | x2 | x2 | x2 | x2 | x2 | %236
 x2 | x2 | x2 | x2 | x2 | x2 |1 x2 :|2 x2 || x2 | x2 | x2 | x4 |][K:G][M:2/4] x4 | x4 | x4 | x4 | %252
 x4 | x4 | x4 | x4 :: x4 | x4 | x4 | x4 :|2 x4 || x4 |2 x4 || x4 | x4 || x4 | x4 | x4 | x4 |2 x4 |: %270
 x4 | x4 | x4 | x4 :| x4 | x4 | x4 | x4 | x4 | x4 | x4 | x4 |][M:2/4] x4 | x4 | x4 | x4 | x4 | x4 | %288
 x4 | x4 ||[K:E] x4 | x4 | x4 | x4 | x4 | x4 | x4 | x4 || x4 | x4 | x4 | x4 | x4 | x4 | x4 | x4 || %306
[K:G] x4 | x4 | x4 | x4 | x4 | x4 | x4 | x4 |][M:4/4] x8 | x8 | x8 | x8 | x8 | x8 | x8 | x8 | x8 | %323
 x8 | x8 | x39 | x8 | x8 | x8 | x8 | x8 | x8 | x8 | x8 | x8 | x8 | x8 | x8 | x8 |] %339
V:6
 x4 | x4 | x4 | x4 | x4 | x4 | x4 | x4 :: x4 | x4 | x4 | x4 | x4 | x4 | x4 | x4 | x4 | x4 | x4 | %19
 x4 | x4 | x4 :| x2 |[K:D][M:3/4] x2 | x6 | x6 | x6 | x6 | B/A/ x5 | x4 A2 | A4 d2- | d2 c2 :: %32
 =c2 | B4 ^d2 | =c4 A2 | G2 GA [DA]G | [DG]FED D^B, | B/A/ x5 | x6 | x6 | x6 | B/A/ x3 C2 | x4 B2 | %43
 A2 x4 | c2 d2 :| x2 |[M:2/4] (F/D/)[I:staff +1].B,/.F,/ x2 | x4 | %48
[I:staff -1] (B/G/)[I:staff +1].E/.B,/ x2 | x4 |[I:staff -1] (F/D/)[I:staff +1].B,/.F,/ x2 | x4 | %52
[I:staff -1] (B/G/)[I:staff +1].E/.B,/ x2 | x4 |:[I:staff -1] (d/B/)[I:staff +1].G/.D/ x2 | x4 | %56
[I:staff -1] (E/B,/)[I:staff +1].G,/.E,/ x2 | x4 | %58
[I:staff -1] (=C/G,/)[I:staff +1].E,/.=C,/[I:staff -1] DB, | %59
 (=C/G,/)[I:staff +1].E,/.=C,/[I:staff -1] =FD | (G/E/) x (^A/E/) x | x4 | %62
 (F/D/)[I:staff +1].B,/.F,/ x2 | x4 |[I:staff -1] (B/G/)[I:staff +1].E/.B,/ x2 |1 x4 :|2 x4 |] %67
[M:2/4][I:staff -1] G/E/ x _B/G/ x | A/F/ x A/E/ x | =G/E/ x _B/G/ x | A/F/ x A/E/ x || %71
 A/E/F/[I:staff +1]_E/[I:staff -1] G/D/_E/[I:staff +1]=C/ | %72
[I:staff -1] D/B,/^C/[I:staff +1]_B,/[I:staff -1] D/[I:staff +1]A,/F,/D,/ | %73
[I:staff -1] A/E/F/[I:staff +1]_E/[I:staff -1] G/D/_E/[I:staff +1]=C/ | %74
[I:staff -1] D/B,/^C/[I:staff +1]_B,/[I:staff -1] D/[I:staff +1]A,/F,/D,/ || %75
[I:staff -1] D/=B,/[I:staff +1]A,/^G,/ x2 | %76
[I:staff -1] c/E/[I:staff +1]^D/"^46"=D/[I:staff -1] A/C/[I:staff +1]E,/C,/ | %77
[I:staff -1] D/=B,/[I:staff +1]A,/^G,/ x2 | %78
[I:staff -1] c/E/[I:staff +1]^D/=D/[I:staff -1] A/C/[I:staff +1]E,/C,/ | %79
[I:staff -1] =G/E/ x _B/G/ x | A/F/ x A/E/ x | =G/E/ x _B/G/ x | A/"^48"F/ x A/-E/- x | %83
 [EAc]2 x2 |][M:2/4] ^G/[E=G]/ | A/[EG]/c/[GA]/ f/[GA]/e/[GA]/ |: d/[DF]/A/[DF]/ z/ [DF]/A/[DF]/ | %87
 (A/C/) C G/[CE]/B/[B,G]/ | A/[A,F]/F/[A,D]/ E/[A,C]/^G/[E=G]/ | %89
 A/[EG]/z/[G,A,]/ z/ [G,A,]/C/[G,A,]/ | D/[F,A,]/F/[A,D]/ B/[DF]/A/[DF]/ | %91
 G/[G,D]/B/[DG]/ e/[EG]/d/!>(![DG]/ |1 c/[CG]/B/[DG]/!>)! A/[^DG]/^G/[E=G]/ | %93
 A/[EG]/c/[GA]/ f/[GA]/e/[GA]/ :|2 c/[CG]/B/[DG]/ A/[^DG]/A/[EG]/ || %95
 _B/[EG]/e/[GB]/ a/[GB]/g/[GB]/ | =f/[=FA]/=c/[FA]/ z/ [FA]/c/[FA]/ | (=c/E/) E _B/[EG]/d/[=CB]/ | %98
 =c/[=CA]/A/[C=F]/ G/C/A/[EG]/ | _B/[EG]/e/[GB]/ a/[GB]/g/[GB]/ | f/[FA]/c/[GA]/ e/[EA]/d/[DA]/ | %101
 B/[DG]/F/[=CD]/ A/[A,D]/G/[G,D]/ | F/[A,D]/E/[G,^C]/ D<[F,A,] |] x2 |[K:A][M:3/4] x2 | x6 | %106
 x4 FE | x6 | x6 | x6 | x4[I:staff +1] F,E, | x6 | x4 |: x2 | x6 | x6 | x6 | x6 | x6 | x6 | x6 | %121
 x4 :| x2 | x6 | x4[I:staff -1] FE | x6 | x6 | x6 | x4[I:staff +1] F,E, | x6 | x4 |] %131
[K:F][M:4/4] x2 |:[I:staff -1] z2 [F,C]6 | x2 F6- | F2 E4 C2- | C2 C4 C2 | z2 [F,C]6 | x2 [GA-]6 | %138
 A3 _A (GcE^F | =F4) E2"^45" z C :| z2 [F,C]6 | cB A4 x2 | G3 (_E DG)B,[I:staff +1]C | %143
 x3[I:staff -1] C B,2 x2 | z2 [B,F]6 | f2 e4 x2 | d3 (B Ad)FG | x3 G F2 E2 | z2 [F,C]6 | x2 F6- | %150
 F2 E4 C2- | C2 C4 C2 | z2 [F,C]6 | z2 [F-Gd]6 | F2 E4 D2- | D2 B,2 A,4 |][M:2/4] x | z [Fc]2 F | %158
 z F2 F | z C2 C | z [CF]2 z | z F2 F | z F2 F | z C2 C | z [CF]2 z |: z C2 C | z (D2 C | %167
 B,) z z C | z [B,D]2 z | z ^F3 | z (E2 D | C) z z D- | D x3 | z [F,C]2 F, | z F2 F | z C2 C | %176
 z [CF]2 z | z F2 _E | z F2 [FGd] | z [Ac]2 [Gc] |1 z"^114" [Fc]2 z :|2 z"^114" [Fc]2 z || x4 | %183
 _ED_DC | =D2 =E2 | C3[K:bass] x | x4 | _E,D,_D,C, | =D,2 =E,2 | C,4 |][K:C][M:3/4][K:treble] x6 | %191
 x6 | x6 | x6 | x6 | x6 | x6 | x6 :: x6 | x6 | x6 | x6 | x6 | x6 | x6 | x6 | x6 | x6 | x6 | x6 | %210
 x6 | x6 | x6 | x6 :| x2 |[K:B][M:2/8] x/ | x2 |: z/ A/C | z/ G/!<(!B, | z/ B/B, | z/ d/D!<)! | %221
 z/ c/E | z/ B/D- | x2 | z/ B/D | z/ c/E | z/ B/D | z/ d/D | z/ f/F | z/ ^e/G | z/ d/F- | x2 | %232
 z/ e/^^F | z/ d/G | z/ B/^^C | z/ ^^F/"^32"D- | x2 | z/ G/B, | z/ B/!fermata!C | z/ d/C | %240
 z/ B/B, | z/ B/"^36" C/>D/- |1 D/G/B, :|2 (D/G/)B, || z/ B/B, | x2 | x2 | x4 |][K:G][M:2/4] x4 | %249
 x _B2 x | AGFG | x4 | x4 | x4 | [FAd]GFG | x4 :: x4 | x4 | x4 | x4 :|2 x4 || G2 x2 |2 x4 || %263
 G2 x2 | x4 || x4 | x4 | x4 | x4 |2 x4 |: x4 | x4 | x4 | x4 :| x4 | x _B2 x | AGFG | x4 | x4 | x4 | %280
 [FAd]G-Gx/C/ | x4 |][M:2/4] x2 B2 | B2 B2 | B2 B2 | B2 B2 | B2 B2 | B2 B2 | B2 B2 | B2 B2 || %290
[K:E] x2 A2 | x2 B,/GF/ | x2[K:bass] F,/G,F,/ | [E,^A,]2 [D,B,]2 |[K:treble] x2 B/gf/ | x2 B,/GF/ | %296
 x2[K:bass] F,/G,F,/ | [E,^A,]2 D,2 || F,2- F,2 | A,G, [A,C]2 |[K:treble] [CF]2- C2- | %301
 [CE]2 [DF]2 | E2 E2 | =C=D/C/ B,/ED/ | E2 E2 | =C"^40"=D/C/ B,/"^36"=GF/ ||[K:G] x2 B2 | B2 B2 | %308
 B2 c2 | c2 B2 | B2 A2 | A2 A2- | x4 | x4 |][M:4/4] x8 | x8 | E4 E4 | D8 | x8 | %319
 x3/2"^89"[I:staff +1] (2:1:1A,(2:1:1^G, x/ (2:1:3G,"^46"[I:staff -1]E- x4 x2 | x8 | x8 | %322
 FD[I:staff +1]A,D,[I:staff -1] GD[I:staff +1]G,D, |[I:staff -1] c^D-[I:staff +1]F,C,- C,4 | %324
[I:staff -1] ^DC[I:staff +1]F,C,[I:staff -1] EB,[I:staff +1]E,B,, | %325
[I:staff -1] A"^56"C"^50"[I:staff +1]^D,A,,- x19[I:staff -1] (3z!p! EF (3GFE ^c3!p! B x8 | x8 | %327
 x8 | E4 E4 | D8 | x8 | %331
 x3/2"^rit.""^46"[I:staff +1] (2:1:1A,(2:1:1^G,"^62" x/ (2:1:3G,"^30"[I:staff -1]E- x4 x2 | x8 | %333
 x8 | x8 | x8 | x8 | x8 | x8 |] %339
V:7
 x4 | x4 | x4 | x4 | x4 | x4 | x4 | x4 :: x4 | x4 | x4 | x4 | x4 | x4 | x4 | x4 | x4 | x4 | x4 | %19
 x4 | x4 | x4 :| x2 |[K:D][M:3/4] x2 | x6 | x6 | x6 | x6 | x6 | x6 | x6 | x4 :: x2 | x6 | x6 | x6 | %36
 x6 | x6 | x6 | x6 | x6 | x6 | x6 | x6 | x4 :| x2 |[M:2/4] x4 | x4 | x4 | x4 | x4 | x4 | x4 | x4 |: %54
 x4 | x4 | x4 | x4 | x4 | x4 | x4 | x4 | x4 | x4 | x4 |1 x4 :|2 x4 |][M:2/4] x4 | x4 | x4 | x4 || %71
 x4 | x4 | x4 | x4 || x4 | x4 | x4 | x4 | x4 | x4 | x4 | x4 | x4 |][M:2/4] x | x4 |: x4 | x4 | x4 | %89
 x4 | x4 | x4 |1 x4 | x4 :|2 x4 || x4 | x4 | x4 | x4 | x4 | x4 | x4 | x4 |] x2 |[K:A][M:3/4] x2 | %105
 x6 | x6 | x6 | x6 | x6 | x6 | x6 | x4 |: x2 | x6 | x6 | x6 | x6 | x6 | x6 | x6 | x4 :| x2 | x6 | %124
 x6 | x6 | x6 | x6 | x6 | x6 | x4 |][K:F][M:4/4] x2 |: x8 | x8 | x8 | x8 | x8 | x8 | x8 | %139
 x7/2{/c} x/ x4 :| x8 | x8 | x8 | x8 | x8 | x8 | x8 | x15/2{/C} x/ | x8 | x8 | x8 | x8 | x8 | %153
 x13/8 !arpeggio!x/ x47/8 | x8 | x8 |][M:2/4] x | x4 | x4 | x GAB | x4 | x4 | x4 | x GAB | x4 |: %165
 x4 | d3 x | x4 | x4 | x4 | e3 x | x4 | x4 | x4 | x4 | x GAB | x4 | x4 | x4 | x3/2 x5/2 |1 x4 :|2 %181
 x4 || x4 | x4 | x4 | x3[K:bass] x | x4 | x4 | x4 | x4 |][K:C][M:3/4][K:treble] x6 | x6 | x6 | x6 | %194
 x6 | x6 | x6 | x6 :: x6 | x6 | x6 | x6 | x6 | x6 | x6 | x6 | x6 | x6 | x6 | x6 | x6 | x6 | x6 | %213
 x6 :| x2 |[K:B][M:2/8] x/ | x2 |: x2 | x2 | x2 | x2 | x2 | x2 | x2 | x2 | x2 | x2 | x2 | x2 | x2 | %230
 x2 | x2 | x2 | x2 | x2 | x2 | x2 | x2 | x2 | x2 | x2 | x2 |1 x2 :|2 x2 || x2 | x2 | x2 | x4 |] %248
[K:G][M:2/4] x4 | x4 | x4 | x4 | x4 | x4 | x4 | x4 :: x4 | x4 | x4 | x4 :|2 x4 || x4 |2 x4 || x4 | %264
 x4 || x4 | x4 | x4 | x4 |2 x4 |: x4 | x4 | x4 | x4 :| x4 | x4 | x4 | x4 | x4 | x4 | x4 | x4 |] %282
[M:2/4] x4 | x4 | x4 | x4 | x4 | x4 | x4 | x4 ||[K:E] x2 B/gf/ | x4 | x2[K:bass] x2 | x4 | %294
[K:treble] x4 | x4 | x2[K:bass] x2 | x4 || x2 B,2- | B,2 x2 |[K:treble] x4 | GF- x2 | x4 | x4 | %304
 x4 | x4 ||[K:G] x4 | x4 | x4 | x4 | x4 | x4 | x4 | x4 |][M:4/4] x8 | x8 | x2 (5:2:5x BAGA x4 | %317
 x8 | x8 | x8 | x8 | x8 | x8 | x2 !fermata!D6 | x8 | x C3- x35 | x8 | x8 | x2 (5:2:5x BAGA x4 | %329
 x8 | x8 | x8 | x8 | x8 | x8 | x8 | x8 | x8 | x8 |] %339
V:8
 x4 | x4 | x4 | x4 | x4 | x4 | x4 | x4 :: x4 | x4 | x4 | x4 | x4 | x4 | x4 | x4 | x4 | x4 | x4 | %19
 x4 | x4 | x4 :| x2 |[K:D][M:3/4] x2 | x6 | x6 | x6 | x6 | x6 | x6 | x6 | x4 :: x2 | x6 | x6 | x6 | %36
 x6 | x6 | x6 | x6 | x6 | x6 | x6 | x6 | x4 :| x2 |[M:2/4] x4 | x4 | x4 | x4 | x4 | x4 | x4 | x4 |: %54
 x4 | x4 | x4 | x4 | x4 | x4 | x4 | x4 | x4 | x4 | x4 |1 x4 :|2 x4 |][M:2/4] x4 | x4 | x4 | x4 || %71
 x4 | x4 | x4 | x4 || x4 | x4 | x4 | x4 | x4 | x4 | x4 | x4 | x4 |][M:2/4] x | x4 |: x4 | x4 | x4 | %89
 x4 | x4 | x4 |1 x4 | x4 :|2 x4 || x4 | x4 | x4 | x4 | x4 | x4 | x4 | x4 |] x2 |[K:A][M:3/4] x2 | %105
 x6 | x6 | x6 | x6 | x6 | x6 | x6 | x4 |: x2 | x6 | x6 | x6 | x6 | x6 | x6 | x6 | x4 :| x2 | x6 | %124
 x6 | x6 | x6 | x6 | x6 | x6 | x4 |][K:F][M:4/4] x2 |: x8 | x8 | x8 | x8 | x8 | x8 | x8 | x8 :| %140
 x8 | x8 | x8 | x8 | x8 | x8 | x8 | x8 | x8 | x8 | x8 | x8 | x8 | x8 | x8 | x8 |][M:2/4] x | x4 | %158
 x4 | x4 | x4 | x4 | x4 | x4 | x4 |: x4 | x4 | x4 | x4 | x4 | x4 | x4 | x4 | x4 | x4 | x4 | x4 | %177
 x4 | x3 !arpeggio!x | x4 |1 x4 :|2 x4 || x4 | x4 | x4 | x3[K:bass] x | x4 | x4 | x4 | x4 |] %190
[K:C][M:3/4][K:treble] x6 | x6 | x6 | x6 | x6 | x6 | x6 | x6 :: x6 | x6 | x6 | x6 | x6 | x6 | x6 | %205
 x6 | x6 | x6 | x6 | x6 | x6 | x6 | x6 | x6 :| x2 |[K:B][M:2/8] x/ | x2 |: x2 | x2 | x2 | x2 | x2 | %222
 x2 | x2 | x2 | x2 | x2 | x2 | x2 | x2 | x2 | x2 | x2 | x2 | x2 | x2 | x2 | x2 | x2 | x2 | x2 | %241
 x2 |1 x2 :|2 x2 || x2 | x2 | x2 | x4 |][K:G][M:2/4] x4 | x4 | x4 | x4 | x4 | x4 | x4 | x4 :: x4 | %257
 x4 | x4 | x4 :|2 x4 || x4 |2 x4 || x4 | x4 || x4 | x4 | x4 | x4 |2 x4 |: x4 | x4 | x4 | x4 :| x4 | %275
 x4 | x4 | x4 | x4 | x4 | x4 | x4 |][M:2/4] x4 | x4 | x4 | x4 | x4 | x4 | x4 | x4 ||[K:E] x4 | x4 | %292
 x2[K:bass] x2 | x4 |[K:treble] x4 | x4 | x2[K:bass] x2 | x4 || x2 B,=A,- | x4 |[K:treble] x2 FE- | %301
 x4 | x4 | x4 | x4 | x4 ||[K:G] x4 | x4 | x4 | x4 | x4 | x4 | x4 | x4 |][M:4/4] x8 | x8 | x8 | x8 | %318
 x8 | x8 | x8 | x8 | x8 | x8 | x8 | x39 | x8 | x8 | x8 | x8 | x8 | x8 | x8 | x8 | x8 | x8 | x8 | %337
 x8 | x8 |] %339

